bernoullicharts/pow_x_1_3__bits.svg

<?xml version="1.0" encoding="utf-8" standalone="no"?>
<!DOCTYPE svg PUBLIC "-//W3C//DTD SVG 1.1//EN"
  "http://www.w3.org/Graphics/SVG/1.1/DTD/svg11.dtd">
<!-- Created with matplotlib (https://matplotlib.org/) -->
<svg height="345.6pt" version="1.1" viewBox="0 0 460.8 345.6" width="460.8pt" xmlns="http://www.w3.org/2000/svg" xmlns:xlink="http://www.w3.org/1999/xlink">
 <defs>
  <style type="text/css">
*{stroke-linecap:butt;stroke-linejoin:round;}
  </style>
 </defs>
 <g id="figure_1">
  <g id="patch_1">
   <path d="M 0 345.6 
L 460.8 345.6 
L 460.8 0 
L 0 0 
z
" style="fill:#ffffff;"/>
  </g>
  <g id="axes_1">
   <g id="patch_2">
    <path d="M 57.6 307.584 
L 414.72 307.584 
L 414.72 41.472 
L 57.6 41.472 
z
" style="fill:#ffffff;"/>
   </g>
   <g id="matplotlib.axis_1">
    <g id="xtick_1">
     <g id="line2d_1">
      <defs>
       <path d="M 0 0 
L 0 3.5 
" id="mee148613e4" style="stroke:#000000;stroke-width:0.8;"/>
      </defs>
      <g>
       <use style="stroke:#000000;stroke-width:0.8;" x="73.800255" xlink:href="#mee148613e4" y="307.584"/>
      </g>
     </g>
     <g id="text_1">
      <text style="font-family:DejaVu Sans;font-size:10px;font-style:normal;font-weight:normal;text-anchor:middle;" transform="rotate(-0, 73.800255, 322.182437)" x="73.800255" y="322.182437">0.0</text>
     </g>
    </g>
    <g id="xtick_2">
     <g id="line2d_2">
      <g>
       <use style="stroke:#000000;stroke-width:0.8;" x="138.744153" xlink:href="#mee148613e4" y="307.584"/>
      </g>
     </g>
     <g id="text_2">
      <text style="font-family:DejaVu Sans;font-size:10px;font-style:normal;font-weight:normal;text-anchor:middle;" transform="rotate(-0, 138.744153, 322.182437)" x="138.744153" y="322.182437">0.2</text>
     </g>
    </g>
    <g id="xtick_3">
     <g id="line2d_3">
      <g>
       <use style="stroke:#000000;stroke-width:0.8;" x="203.688051" xlink:href="#mee148613e4" y="307.584"/>
      </g>
     </g>
     <g id="text_3">
      <text style="font-family:DejaVu Sans;font-size:10px;font-style:normal;font-weight:normal;text-anchor:middle;" transform="rotate(-0, 203.688051, 322.182437)" x="203.688051" y="322.182437">0.4</text>
     </g>
    </g>
    <g id="xtick_4">
     <g id="line2d_4">
      <g>
       <use style="stroke:#000000;stroke-width:0.8;" x="268.631949" xlink:href="#mee148613e4" y="307.584"/>
      </g>
     </g>
     <g id="text_4">
      <text style="font-family:DejaVu Sans;font-size:10px;font-style:normal;font-weight:normal;text-anchor:middle;" transform="rotate(-0, 268.631949, 322.182437)" x="268.631949" y="322.182437">0.6</text>
     </g>
    </g>
    <g id="xtick_5">
     <g id="line2d_5">
      <g>
       <use style="stroke:#000000;stroke-width:0.8;" x="333.575847" xlink:href="#mee148613e4" y="307.584"/>
      </g>
     </g>
     <g id="text_5">
      <text style="font-family:DejaVu Sans;font-size:10px;font-style:normal;font-weight:normal;text-anchor:middle;" transform="rotate(-0, 333.575847, 322.182437)" x="333.575847" y="322.182437">0.8</text>
     </g>
    </g>
    <g id="xtick_6">
     <g id="line2d_6">
      <g>
       <use style="stroke:#000000;stroke-width:0.8;" x="398.519745" xlink:href="#mee148613e4" y="307.584"/>
      </g>
     </g>
     <g id="text_6">
      <text style="font-family:DejaVu Sans;font-size:10px;font-style:normal;font-weight:normal;text-anchor:middle;" transform="rotate(-0, 398.519745, 322.182437)" x="398.519745" y="322.182437">1.0</text>
     </g>
    </g>
    <g id="text_7">
     <text style="font-family:DejaVu Sans;font-size:10px;font-style:normal;font-weight:normal;text-anchor:middle;" transform="rotate(-0, 236.16, 335.860562)" x="236.16" y="335.860562">Probability</text>
    </g>
   </g>
   <g id="matplotlib.axis_2">
    <g id="ytick_1">
     <g id="line2d_7">
      <defs>
       <path d="M 0 0 
L -3.5 0 
" id="meb36fa4243" style="stroke:#000000;stroke-width:0.8;"/>
      </defs>
      <g>
       <use style="stroke:#000000;stroke-width:0.8;" x="57.6" xlink:href="#meb36fa4243" y="295.723392"/>
      </g>
     </g>
     <g id="text_8">
      <text style="font-family:DejaVu Sans;font-size:10px;font-style:normal;font-weight:normal;text-anchor:end;" transform="rotate(-0, 50.6, 299.522611)" x="50.6" y="299.522611">0</text>
     </g>
    </g>
    <g id="ytick_2">
     <g id="line2d_8">
      <g>
       <use style="stroke:#000000;stroke-width:0.8;" x="57.6" xlink:href="#meb36fa4243" y="265.790504"/>
      </g>
     </g>
     <g id="text_9">
      <text style="font-family:DejaVu Sans;font-size:10px;font-style:normal;font-weight:normal;text-anchor:end;" transform="rotate(-0, 50.6, 269.589722)" x="50.6" y="269.589722">250</text>
     </g>
    </g>
    <g id="ytick_3">
     <g id="line2d_9">
      <g>
       <use style="stroke:#000000;stroke-width:0.8;" x="57.6" xlink:href="#meb36fa4243" y="235.857615"/>
      </g>
     </g>
     <g id="text_10">
      <text style="font-family:DejaVu Sans;font-size:10px;font-style:normal;font-weight:normal;text-anchor:end;" transform="rotate(-0, 50.6, 239.656834)" x="50.6" y="239.656834">500</text>
     </g>
    </g>
    <g id="ytick_4">
     <g id="line2d_10">
      <g>
       <use style="stroke:#000000;stroke-width:0.8;" x="57.6" xlink:href="#meb36fa4243" y="205.924727"/>
      </g>
     </g>
     <g id="text_11">
      <text style="font-family:DejaVu Sans;font-size:10px;font-style:normal;font-weight:normal;text-anchor:end;" transform="rotate(-0, 50.6, 209.723945)" x="50.6" y="209.723945">750</text>
     </g>
    </g>
    <g id="ytick_5">
     <g id="line2d_11">
      <g>
       <use style="stroke:#000000;stroke-width:0.8;" x="57.6" xlink:href="#meb36fa4243" y="175.991838"/>
      </g>
     </g>
     <g id="text_12">
      <text style="font-family:DejaVu Sans;font-size:10px;font-style:normal;font-weight:normal;text-anchor:end;" transform="rotate(-0, 50.6, 179.791057)" x="50.6" y="179.791057">1000</text>
     </g>
    </g>
    <g id="ytick_6">
     <g id="line2d_12">
      <g>
       <use style="stroke:#000000;stroke-width:0.8;" x="57.6" xlink:href="#meb36fa4243" y="146.058949"/>
      </g>
     </g>
     <g id="text_13">
      <text style="font-family:DejaVu Sans;font-size:10px;font-style:normal;font-weight:normal;text-anchor:end;" transform="rotate(-0, 50.6, 149.858168)" x="50.6" y="149.858168">1250</text>
     </g>
    </g>
    <g id="ytick_7">
     <g id="line2d_13">
      <g>
       <use style="stroke:#000000;stroke-width:0.8;" x="57.6" xlink:href="#meb36fa4243" y="116.126061"/>
      </g>
     </g>
     <g id="text_14">
      <text style="font-family:DejaVu Sans;font-size:10px;font-style:normal;font-weight:normal;text-anchor:end;" transform="rotate(-0, 50.6, 119.92528)" x="50.6" y="119.92528">1500</text>
     </g>
    </g>
    <g id="ytick_8">
     <g id="line2d_14">
      <g>
       <use style="stroke:#000000;stroke-width:0.8;" x="57.6" xlink:href="#meb36fa4243" y="86.193172"/>
      </g>
     </g>
     <g id="text_15">
      <text style="font-family:DejaVu Sans;font-size:10px;font-style:normal;font-weight:normal;text-anchor:end;" transform="rotate(-0, 50.6, 89.992391)" x="50.6" y="89.992391">1750</text>
     </g>
    </g>
    <g id="ytick_9">
     <g id="line2d_15">
      <g>
       <use style="stroke:#000000;stroke-width:0.8;" x="57.6" xlink:href="#meb36fa4243" y="56.260284"/>
      </g>
     </g>
     <g id="text_16">
      <text style="font-family:DejaVu Sans;font-size:10px;font-style:normal;font-weight:normal;text-anchor:end;" transform="rotate(-0, 50.6, 60.059502)" x="50.6" y="60.059502">2000</text>
     </g>
    </g>
    <g id="text_17">
     <text style="font-family:DejaVu Sans;font-size:10px;font-style:normal;font-weight:normal;text-anchor:middle;" transform="rotate(-90, 19.070312, 174.528)" x="19.070312" y="174.528">Average Bits Consumed Per Call</text>
    </g>
   </g>
   <g id="line2d_16">
    <path clip-path="url(#pb65c6447cb)" d="M 73.832727 53.568 
L 77.112066 285.447791 
L 80.391405 290.172637 
L 83.670744 291.013153 
L 86.950083 291.650843 
L 90.229421 291.634081 
L 93.50876 292.813197 
L 96.788099 293.135754 
L 100.067438 293.102469 
L 103.346777 293.470044 
L 106.626116 293.63264 
L 109.905455 293.762908 
L 113.184793 293.899641 
L 116.464132 294.010992 
L 119.743471 293.902754 
L 123.02281 294.119229 
L 126.302149 294.198012 
L 129.581488 294.284698 
L 132.860826 294.326843 
L 136.140165 294.397724 
L 139.419504 294.488242 
L 142.698843 294.414487 
L 145.978182 294.579956 
L 149.257521 294.60031 
L 152.53686 294.700406 
L 155.816198 294.657063 
L 159.095537 294.728662 
L 162.374876 294.757877 
L 165.654215 294.797628 
L 168.933554 294.840731 
L 172.212893 294.846718 
L 175.492231 294.860846 
L 178.77157 294.830195 
L 182.050909 294.926459 
L 185.330248 294.895568 
L 188.609587 294.972196 
L 191.888926 294.995424 
L 195.168264 294.99279 
L 198.447603 294.961421 
L 201.726942 294.99279 
L 205.006281 295.009553 
L 208.28562 295.067024 
L 211.564959 295.080913 
L 214.844298 295.049064 
L 218.123636 295.054572 
L 221.402975 295.10462 
L 224.682314 295.095041 
L 227.961653 295.157541 
L 231.240992 295.124495 
L 234.520331 295.151794 
L 237.799669 295.169275 
L 241.079008 295.150596 
L 244.358347 295.205434 
L 247.637686 295.222914 
L 250.917025 295.186037 
L 254.196364 295.219083 
L 257.475702 295.219083 
L 260.755041 295.234648 
L 264.03438 295.213815 
L 267.313719 295.254523 
L 270.593058 295.270567 
L 273.872397 295.298824 
L 277.151736 295.308882 
L 280.431074 295.301698 
L 283.710413 295.273441 
L 286.989752 295.308163 
L 290.269091 295.274638 
L 293.54843 295.325165 
L 296.827769 295.315108 
L 300.107107 295.329475 
L 303.386446 295.332349 
L 306.665785 295.330673 
L 309.945124 295.366832 
L 313.224463 295.335701 
L 316.503802 295.368029 
L 319.78314 295.391736 
L 323.062479 295.383355 
L 326.341818 295.362282 
L 329.621157 295.406343 
L 332.900496 295.382397 
L 336.179835 295.38096 
L 339.459174 295.391975 
L 342.738512 295.41664 
L 346.017851 295.419274 
L 349.29719 295.391975 
L 352.576529 295.419274 
L 355.855868 295.427416 
L 359.135207 295.414724 
L 362.414545 295.435318 
L 365.693884 295.426458 
L 368.973223 295.449207 
L 372.252562 295.435797 
L 375.531901 295.455912 
L 378.81124 295.451123 
L 382.090579 295.459264 
L 385.369917 295.453038 
L 388.649256 295.477943 
L 391.928595 295.458307 
L 395.207934 295.46549 
L 398.487273 295.488 
" style="fill:none;stroke:#1f77b4;stroke-linecap:square;stroke-width:1.5;"/>
   </g>
   <g id="patch_3">
    <path d="M 57.6 307.584 
L 57.6 41.472 
" style="fill:none;stroke:#000000;stroke-linecap:square;stroke-linejoin:miter;stroke-width:0.8;"/>
   </g>
   <g id="patch_4">
    <path d="M 414.72 307.584 
L 414.72 41.472 
" style="fill:none;stroke:#000000;stroke-linecap:square;stroke-linejoin:miter;stroke-width:0.8;"/>
   </g>
   <g id="patch_5">
    <path d="M 57.6 307.584 
L 414.72 307.584 
" style="fill:none;stroke:#000000;stroke-linecap:square;stroke-linejoin:miter;stroke-width:0.8;"/>
   </g>
   <g id="patch_6">
    <path d="M 57.6 41.472 
L 414.72 41.472 
" style="fill:none;stroke:#000000;stroke-linecap:square;stroke-linejoin:miter;stroke-width:0.8;"/>
   </g>
   <g id="text_18">
    <text style="font-family:DejaVu Sans;font-size:12px;font-style:normal;font-weight:normal;text-anchor:middle;" transform="rotate(-0, 236.16, 35.472)" x="236.16" y="35.472">Avg. Bits Consumed by pow(x,1/3) Algorithm</text>
   </g>
   <g id="legend_1">
    <g id="patch_7">
     <path d="M 322.080938 64.150125 
L 407.72 64.150125 
Q 409.72 64.150125 409.72 62.150125 
L 409.72 48.472 
Q 409.72 46.472 407.72 46.472 
L 322.080938 46.472 
Q 320.080938 46.472 320.080938 48.472 
L 320.080938 62.150125 
Q 320.080938 64.150125 322.080938 64.150125 
z
" style="fill:#ffffff;opacity:0.8;stroke:#cccccc;stroke-linejoin:miter;"/>
    </g>
    <g id="line2d_17">
     <path d="M 324.080938 54.570438 
L 344.080938 54.570438 
" style="fill:none;stroke:#1f77b4;stroke-linecap:square;stroke-width:1.5;"/>
    </g>
    <g id="line2d_18"/>
    <g id="text_19">
     <text style="font-family:DejaVu Sans;font-size:10px;font-style:normal;font-weight:normal;text-anchor:start;" transform="rotate(-0, 352.080938, 58.070438)" x="352.080938" y="58.070438">pow(x,1/3)</text>
    </g>
   </g>
  </g>
 </g>
 <defs>
  <clipPath id="pb65c6447cb">
   <rect height="266.112" width="357.12" x="57.6" y="41.472"/>
  </clipPath>
 </defs>
</svg>

<svg height="460.8" viewBox="0 0 460.8 345.6" width="614.4" xmlns="http://www.w3.org/2000/svg" xmlns:xlink="http://www.w3.org/1999/xlink"><defs><style>*{stroke-linecap:butt;stroke-linejoin:round}</style></defs><g id="figure_1"><path d="M0 345.6h460.8V0H0z" fill="#fff" id="patch_1"/><g id="axes_1"><path d="M57.6 307.584h357.12V41.472H57.6z" fill="#fff" id="patch_2"/><g id="matplotlib.axis_1"><g id="xtick_1"><g id="line2d_1"><defs><path d="M0 0v3.5" id="md2bba7739a" stroke="#000" stroke-width=".8"/></defs><use x="73.8" xlink:href="#md2bba7739a" y="307.584" stroke="#000" stroke-width=".8"/></g><text x="73.8" y="322.182" font-family="DejaVu Sans" font-size="10" font-weight="400" text-anchor="middle" id="text_1">0.0</text></g><g id="xtick_2"><use x="138.744" xlink:href="#md2bba7739a" y="307.584" stroke="#000" stroke-width=".8" id="line2d_2"/><text x="138.744" y="322.182" font-family="DejaVu Sans" font-size="10" font-weight="400" text-anchor="middle" id="text_2">0.2</text></g><g id="xtick_3"><use x="203.688" xlink:href="#md2bba7739a" y="307.584" stroke="#000" stroke-width=".8" id="line2d_3"/><text x="203.688" y="322.182" font-family="DejaVu Sans" font-size="10" font-weight="400" text-anchor="middle" id="text_3">0.4</text></g><g id="xtick_4"><use x="268.632" xlink:href="#md2bba7739a" y="307.584" stroke="#000" stroke-width=".8" id="line2d_4"/><text x="268.632" y="322.182" font-family="DejaVu Sans" font-size="10" font-weight="400" text-anchor="middle" id="text_4">0.6</text></g><g id="xtick_5"><use x="333.576" xlink:href="#md2bba7739a" y="307.584" stroke="#000" stroke-width=".8" id="line2d_5"/><text x="333.576" y="322.182" font-family="DejaVu Sans" font-size="10" font-weight="400" text-anchor="middle" id="text_5">0.8</text></g><g id="xtick_6"><use x="398.52" xlink:href="#md2bba7739a" y="307.584" stroke="#000" stroke-width=".8" id="line2d_6"/><text x="398.52" y="322.182" font-family="DejaVu Sans" font-size="10" font-weight="400" text-anchor="middle" id="text_6">1.0</text></g><text x="236.16" y="335.861" font-family="DejaVu Sans" font-size="10" font-weight="400" text-anchor="middle" id="text_7">Probability</text></g><g id="matplotlib.axis_2"><g id="ytick_1"><g id="line2d_7"><defs><path d="M0 0h-3.5" id="m6a353e94b4" stroke="#000" stroke-width=".8"/></defs><use x="57.6" xlink:href="#m6a353e94b4" y="295.715" stroke="#000" stroke-width=".8"/></g><text x="50.6" y="299.514" font-family="DejaVu Sans" font-size="10" font-weight="400" text-anchor="end" id="text_8">0</text></g><g id="ytick_2"><use x="57.6" xlink:href="#m6a353e94b4" y="237.775" stroke="#000" stroke-width=".8" id="line2d_8"/><text x="50.6" y="241.574" font-family="DejaVu Sans" font-size="10" font-weight="400" text-anchor="end" id="text_9">500</text></g><g id="ytick_3"><use x="57.6" xlink:href="#m6a353e94b4" y="179.835" stroke="#000" stroke-width=".8" id="line2d_9"/><text x="50.6" y="183.634" font-family="DejaVu Sans" font-size="10" font-weight="400" text-anchor="end" id="text_10">1000</text></g><g id="ytick_4"><use x="57.6" xlink:href="#m6a353e94b4" y="121.895" stroke="#000" stroke-width=".8" id="line2d_10"/><text x="50.6" y="125.694" font-family="DejaVu Sans" font-size="10" font-weight="400" text-anchor="end" id="text_11">1500</text></g><g id="ytick_5"><use x="57.6" xlink:href="#m6a353e94b4" y="63.955" stroke="#000" stroke-width=".8" id="line2d_11"/><text x="50.6" y="67.754" font-family="DejaVu Sans" font-size="10" font-weight="400" text-anchor="end" id="text_12">2000</text></g><text transform="rotate(-90 19.07 174.528)" x="19.07" y="174.528" font-family="DejaVu Sans" font-size="10" font-weight="400" text-anchor="middle" id="text_13">Average Bits Consumed Per Call</text></g><path clip-path="url(#p376f44cb2e)" d="M73.833 53.568l3.28 233.19 3.278 3.3 3.28.658 3.28.898 3.278.565 3.28.852 3.28.04 3.278.355 3.28.058 3.28.306 3.278-.11 3.28.195 3.28.164 3.278-.044 3.28.183 3.28.117 3.278.054 3.28.093 3.28.048 3.279-.012 3.279.082 3.28.068 3.279-.005 3.279-.023 3.28.185 3.279.02 3.279.042 3.28-.01 3.279-.038 3.279-.039 3.28.146 3.279-.028 3.279.045 3.28-.053 3.279.068 3.279.054 3.28-.03 3.279.082 3.279.014 3.28-.01 3.279.043 3.279-.007 3.28.008 3.279.022 3.279-.013 3.28.06 3.279-.026 3.279.042h3.28l3.279-.002 3.279.006 3.28.04 3.279-.003 3.279-.051 3.28.066 3.279-.019 3.279.023h3.28l3.279.016 3.28.032 3.278-.019 3.28.049 3.28-.032 3.278.011 3.28.012 3.28-.015 3.278.048 3.28-.003 3.28-.01 3.278.008 3.28.03 3.28.004 3.278-.012 3.28.024 3.28.01 3.278-.006 3.28-.007 3.28.029 3.278-.02 3.28.008 3.28-.003 3.279.022 3.279-.017 3.28.03 3.279.011 3.279-.005 3.28-.021 3.279.024 3.279.037 3.28-.032 3.279.004 3.279-.009 3.28.017 3.279.01 3.279.001 3.28.014 3.279-.005 3.279.016 3.28-.018" fill="none" stroke="#1f77b4" stroke-linecap="square" stroke-width="1.5" id="line2d_12"/><path d="M57.6 307.584V41.472" fill="none" stroke="#000" stroke-linecap="square" stroke-width=".8" id="patch_3"/><path d="M414.72 307.584V41.472" fill="none" stroke="#000" stroke-linecap="square" stroke-width=".8" id="patch_4"/><path d="M57.6 307.584h357.12" fill="none" stroke="#000" stroke-linecap="square" stroke-width=".8" id="patch_5"/><path d="M57.6 41.472h357.12" fill="none" stroke="#000" stroke-linecap="square" stroke-width=".8" id="patch_6"/><text x="236.16" y="35.472" font-family="DejaVu Sans" font-size="12" font-weight="400" text-anchor="middle" id="text_14">Avg. Bits Consumed by pow(x,1/3) Algorithm</text><g id="legend_1"><path d="M322.08 64.15h85.64q2 0 2-2V48.472q0-2-2-2h-85.64q-2 0-2 2V62.15q0 2 2 2z" fill="#fff" opacity=".8" stroke="#ccc" id="patch_7"/><path d="M324.08 54.57h20" fill="none" stroke="#1f77b4" stroke-linecap="square" stroke-width="1.5" id="line2d_13"/><text x="352.081" y="58.07" font-family="DejaVu Sans" font-size="10" font-weight="400" id="text_15">pow(x,1/3)</text></g></g></g><defs><clipPath id="p376f44cb2e"><path d="M57.6 41.472h357.12v266.112H57.6z"/></clipPath></defs></svg>
